X: 9
T: Mullingar Races, The
Z: jamesa
S: https://thesession.org/tunes/225#setting50671
R: reel
M: 4/4
L: 1/8
K: Dmaj
|:D2FD EDB,A,|D2FA B2de|fded dBAd|BdAF E3F|
D2FD EDB,A,|DEFA Bcde|fdef dBAF|1 E3F D2A,B,:|2 E3F BA||
|:d3B Adfa|afdf edBc|d3B ABde|Beed egfe|
[1 d3B Adfa|afdf edBe|d2ef dBAF|E3F DEFA:|
[2 d3B Adfg|afdf edfg|afec dBAF|AFEG FDFE||

%-------------------- TUNE SEPARATOR --------------------%

